svg/u1f1ef.svg

<svg viewBox="0 0 128 128" xmlns="http://www.w3.org/2000/svg">
  <path d="m100.08 16.44h-24.64c-1.24 0-2.24 1-2.24 2.24v45.53c0.31 10.84-0.18 23.69-1.52 25.89-0.1 0.13-0.2 0.28-0.27 0.43-1.6 3.33-6.9 6.78-12.99 6.78-6.33 0-13.78-5.46-15.94-11.68-0.4-1.15-1.62-1.77-2.79-1.41l-20.47 6.41c-1.06 0.33-1.7 1.38-1.53 2.48 0.01 0.07 0.03 0.14 0.04 0.2 2.32 17.58 18.94 29.38 41.46 29.38 22.53 0 39.16-11.81 41.48-29.4 0.02-0.1 0.04-0.19 0.05-0.29 1.56-15.02 1.58-28.71 1.58-28.85v-45.47c0.02-1.23-0.98-2.24-2.22-2.24z" fill="#40C0E7"/>
</svg>

<svg viewBox="0 0 128 128" xmlns="http://www.w3.org/2000/svg">
  <defs/>
  <path d="M100.08,16.44 L75.44,16.44 C74.2,16.44 73.2,17.44 73.2,18.68 L73.2,64.21 C73.51,75.05 73.02,87.9 71.68,90.1 C71.58,90.23 71.48,90.38 71.41,90.53 C69.81,93.86 64.51,97.31 58.42,97.31 C52.09,97.31 44.64,91.85 42.48,85.63 C42.08,84.48 40.86,83.86 39.69,84.22 L19.22,90.63 C18.16,90.96 17.52,92.01 17.69,93.11 C17.7,93.18 17.72,93.25 17.73,93.31 C20.05,110.89 36.67,122.69 59.19,122.69 C81.72,122.69 98.35,110.88 100.67,93.29 C100.69,93.19 100.71,93.1 100.72,93 C102.28,77.98 102.3,64.29 102.3,64.15 L102.3,18.68 C102.32,17.45 101.32,16.44 100.08,16.44 Z" fill="#40C0E7"/>
</svg>
